icons/Lock.svg

<svg width="24" height="24" viewBox="0 0 24 24" fill="none" xmlns="http://www.w3.org/2000/svg">
<g id="Lock">
<path id="Vector" d="M17 9H7C5.34315 9 4 10.3431 4 12V18C4 19.6569 5.34315 21 7 21H17C18.6569 21 20 19.6569 20 18V12C20 10.3431 18.6569 9 17 9Z" stroke="#00153F" stroke-width="1.5" stroke-linecap="round" stroke-linejoin="round"/>
<path id="Vector_2" d="M10.64 3.00003H13.35C13.5662 2.99871 13.7805 3.04016 13.9807 3.12199C14.1808 3.20381 14.3628 3.32441 14.5161 3.47683C14.6695 3.62924 14.7912 3.81048 14.8742 4.01011C14.9573 4.20974 15 4.42382 15 4.64003V9.00003H9V4.64003C9 4.20508 9.17279 3.78793 9.48034 3.48038C9.7879 3.17282 10.205 3.00003 10.64 3.00003Z" stroke="#00153F" stroke-width="1.5" stroke-linecap="round" stroke-linejoin="round"/>
<path id="Vector_3" d="M12 17C13.1046 17 14 16.1046 14 15C14 13.8954 13.1046 13 12 13C10.8954 13 10 13.8954 10 15C10 16.1046 10.8954 17 12 17Z" stroke="#00153F" stroke-width="1.5" stroke-linecap="round" stroke-linejoin="round"/>
</g>
</svg>

<svg xmlns="http://www.w3.org/2000/svg" fill="none" viewBox="0 0 24 24"><g stroke="currentColor" stroke-linecap="round" stroke-linejoin="round" stroke-width="1.5"><path d="M17 9H7a3 3 0 0 0-3 3v6a3 3 0 0 0 3 3h10a3 3 0 0 0 3-3v-6a3 3 0 0 0-3-3Zm-6.36-6h2.71A1.64 1.64 0 0 1 15 4.64V9H9V4.64A1.64 1.64 0 0 1 10.64 3Z"/><path d="M12 17a2 2 0 1 0 0-4 2 2 0 0 0 0 4Z"/></g></svg>
